icons/svg/transport/speedcamera.svg

<?xml version="1.0" encoding="UTF-8" standalone="no"?>
<!-- Created with Inkscape (http://www.inkscape.org/) -->

<svg
   xmlns:dc="http://purl.org/dc/elements/1.1/"
   xmlns:cc="http://creativecommons.org/ns#"
   xmlns:rdf="http://www.w3.org/1999/02/22-rdf-syntax-ns#"
   xmlns:svg="http://www.w3.org/2000/svg"
   xmlns="http://www.w3.org/2000/svg"
   xmlns:sodipodi="http://sodipodi.sourceforge.net/DTD/sodipodi-0.dtd"
   xmlns:inkscape="http://www.inkscape.org/namespaces/inkscape"
   version="1.0"
   width="580"
   height="580"
   id="svg2"
   sodipodi:version="0.32"
   inkscape:version="0.48.4 r9939"
   sodipodi:docname="speedbump.svg"
   inkscape:output_extension="org.inkscape.output.svg.inkscape">
  <metadata
     id="metadata10">
    <rdf:RDF>
      <cc:Work
         rdf:about="">
        <dc:format>image/svg+xml</dc:format>
        <dc:type
           rdf:resource="http://purl.org/dc/dcmitype/StillImage" />
        <cc:license
           rdf:resource="http://web.resource.org/cc/PublicDomain" />
        <dc:language>en</dc:language>
        <dc:title></dc:title>
      </cc:Work>
    </rdf:RDF>
  </metadata>
  <sodipodi:namedview
     inkscape:window-height="1004"
     inkscape:window-width="1920"
     inkscape:pageshadow="2"
     inkscape:pageopacity="0.0"
     guidetolerance="10.0"
     gridtolerance="10.0"
     objecttolerance="10.0"
     borderopacity="1.0"
     bordercolor="#666666"
     pagecolor="#ffffff"
     id="base"
     showgrid="false"
     inkscape:zoom="0.70710678"
     inkscape:cx="50.7054"
     inkscape:cy="349.28655"
     inkscape:window-x="1680"
     inkscape:window-y="0"
     inkscape:current-layer="svg2"
     inkscape:window-maximized="1">
    <inkscape:grid
       type="xygrid"
       id="grid3779" />
  </sodipodi:namedview>
  <defs
     id="defs4">
    <inkscape:perspective
       sodipodi:type="inkscape:persp3d"
       inkscape:vp_x="0 : 290 : 1"
       inkscape:vp_y="0 : 1000 : 0"
       inkscape:vp_z="580 : 290 : 1"
       inkscape:persp3d-origin="290 : 193.33333 : 1"
       id="perspective12" />
    <style
       type="text/css"
       id="style6">
   
    .fil0 {fill:#EF7900}
   
  </style>
    <inkscape:perspective
       id="perspective6807"
       inkscape:persp3d-origin="29.116032 : 19.410688 : 1"
       inkscape:vp_z="58.232063 : 29.116032 : 1"
       inkscape:vp_y="0 : 1000 : 0"
       inkscape:vp_x="0 : 29.116032 : 1"
       sodipodi:type="inkscape:persp3d" />
    <inkscape:perspective
       id="perspective6954"
       inkscape:persp3d-origin="290 : 193.33333 : 1"
       inkscape:vp_z="580 : 290 : 1"
       inkscape:vp_y="0 : 1000 : 0"
       inkscape:vp_x="0 : 290 : 1"
       sodipodi:type="inkscape:persp3d" />
    <marker
       viewBox="0 0 10 10"
       refY="5"
       refX="10"
       orient="auto"
       markerWidth="4"
       markerUnits="strokeWidth"
       markerHeight="3"
       id="ArrowStart">
      <path
         id="path2295"
         d="M 10 0 L 0 5 L 10 10 z" />
    </marker>
    <marker
       viewBox="0 0 10 10"
       refY="5"
       refX="0"
       orient="auto"
       markerWidth="4"
       markerUnits="strokeWidth"
       markerHeight="3"
       id="ArrowEnd">
      <path
         id="path2292"
         d="M 0 0 L 10 5 L 0 10 z" />
    </marker>
    <inkscape:perspective
       id="perspective7597"
       inkscape:persp3d-origin="178.5405 : 158.483 : 1"
       inkscape:vp_z="357.08099 : 237.7245 : 1"
       inkscape:vp_y="0 : 1000 : 0"
       inkscape:vp_x="0 : 237.7245 : 1"
       sodipodi:type="inkscape:persp3d" />
  </defs>
  <g
     id="g1327">
    <path
       d="M 66.275,1.768 C 24.94,1.768 1.704,23.139 1.704,66.804 L 1.704,516.927 C 1.704,557.771 22.598,579.156 63.896,579.156 L 515.92,579.156 C 557.227,579.156 578.149,558.84 578.149,516.927 L 578.149,66.804 C 578.149,24.203 557.227,1.768 514.627,1.768 C 514.624,1.768 66.133,1.625 66.275,1.768 z"
       style="fill:#111111;stroke:#eeeeee;stroke-width:3.40799999"
       id="path1329" />
  </g>
  <g
     id="g2319"
     transform="translate(879.29125,36.805119)">
    <path
       id="path2323"
       style="fill:#ffffff;stroke:none"
       d="" />
  </g>
  <g
     id="g2325"
     transform="translate(879.29125,36.805119)">
    <path
       id="path2329"
       style="fill:#ffffff;stroke:none"
       d="" />
  </g>
  <path
     style="color:#000000;fill:#ffffff;fill-opacity:1;fill-rule:nonzero;stroke:none;stroke-width:0.60000002;marker:none;visibility:visible;display:inline;overflow:visible;enable-background:accumulate"
     d="m 99.55615,123.29688 c -23.027375,0 -41.5625,18.53512 -41.5625,41.56249 l 0,250.28125 c 0,23.02738 18.535125,41.5625 41.5625,41.5625 l 194.71875,0 c 23.02737,0 41.59375,-18.53512 41.59375,-41.5625 l 0,-250.28125 c 0,-23.02737 -18.56638,-41.56249 -41.59375,-41.56249 l -194.71875,0 z m 162.3125,29.43749 c 0.6482,0.002 1.31451,0.0274 1.96875,0.0625 20.24407,1.08693 35.96475,18.06802 35.96875,38.125 a 9.1679165,9.1679165 0 0 1 0.0937,1.9375 9.1679165,9.1679165 0 0 1 0,0.0937 9.1679165,9.1679165 0 0 1 0,0.0312 9.1679165,9.1679165 0 0 1 -0.3125,1.875 c -2.10766,19.98047 -19.56583,35.24509 -39.8437,34.15635 -20.93556,-1.12406 -37.15531,-19.2207 -36.03125,-40.15626 1.08893,-20.28132 18.06202,-36.17392 38.15625,-36.125 z m -1.0625,18.34375 c -10.11521,0.46398 -18.25672,8.42996 -18.8125,18.78125 -0.59283,11.04138 7.70862,20.25092 18.75,20.84375 11.04138,0.59283 20.25092,-7.67737 20.84375,-18.71875 a 9.1679165,9.1679165 0 0 1 0,-0.0625 c 0.56901,-11.02582 -7.69414,-20.22057 -18.71875,-20.8125 -0.69009,-0.037 -1.38815,-0.0622 -2.0625,-0.0312 z m -92.90625,106.0625 c 1.27445,0.004 2.55633,0.0246 3.84375,0.0937 41.13763,2.20874 72.99823,37.60787 70.875,78.75 l -25.46875,-1.3125 c 1.41392,-27.39794 -19.35506,-50.46663 -46.75,-51.9375 -27.43602,-1.47307 -50.58943,19.31399 -52.0625,46.75 -1.47308,27.43602 19.31398,50.55818 46.75,52.03125 27.43601,1.47308 50.58942,-19.31398 52.0625,-46.75 l 25.46875,1.375 c -2.21194,41.19746 -37.70884,73.05575 -78.90625,70.8438 -41.19741,-2.21194 -73.055692,-37.67759 -70.84375,-78.875 2.0737,-38.62257 33.39855,-69.0462 71.25,-70.875 1.26172,-0.061 2.5068,-0.0977 3.78125,-0.0937 z"
     id="rect2998"
     inkscape:connector-curvature="0" />
  <rect
     style="color:#000000;fill:#ffffff;fill-opacity:1;fill-rule:nonzero;stroke:none;stroke-width:0.60000002;marker:none;visibility:visible;display:inline;overflow:visible;enable-background:accumulate"
     id="rect3780"
     width="62.225395"
     height="183.84776"
     x="358.66467"
     y="178.17247"
     ry="0" />
  <path
     style="color:#000000;fill:#ffffff;fill-opacity:1;fill-rule:nonzero;stroke:none;stroke-width:0.60000002;marker:none;visibility:visible;display:inline;overflow:visible;enable-background:accumulate"
     d="m 441.39618,209.99227 24.28738,0 0,37.46968 56.32279,0.0303 0,101.80003 -56.07279,-0.0429 -0.5,51.37249 -107.47598,-0.0643 0.14032,-17.58456 83.29828,-0.0931 z"
     id="rect3782"
     inkscape:connector-curvature="0"
     sodipodi:nodetypes="ccccccccccc" />
</svg>

<svg width="580" height="580" viewBox="0 0 580 580" fill="none" xmlns="http://www.w3.org/2000/svg">
<g clip-path="url(#clip0)">
<path d="M66.2751 1.76766C24.9401 1.76766 1.7041 23.1387 1.7041 66.8037V516.927C1.7041 557.771 22.5981 579.156 63.8961 579.156H515.92C557.227 579.156 578.149 558.84 578.149 516.927V66.8037C578.149 24.2027 557.227 1.76766 514.627 1.76766C514.624 1.76766 66.1331 1.62466 66.2751 1.76766Z" fill="#111111" stroke="#EEEEEE" stroke-width="3.408"/>
<path d="M99.5557 123.297C76.5283 123.297 57.9932 141.832 57.9932 164.859V415.141C57.9932 438.168 76.5283 456.703 99.5557 456.703H294.274C317.302 456.703 335.868 438.168 335.868 415.141V164.859C335.868 141.832 317.302 123.297 294.274 123.297H99.5557V123.297ZM261.868 152.734C262.516 152.736 263.183 152.762 263.837 152.797C284.081 153.884 299.802 170.865 299.806 190.922C299.905 191.563 299.937 192.212 299.899 192.859C299.9 192.891 299.9 192.922 299.899 192.953C299.899 192.963 299.899 192.974 299.899 192.984C299.86 193.618 299.756 194.247 299.587 194.859C297.479 214.84 280.021 230.104 259.743 229.016C238.808 227.892 222.588 209.795 223.712 188.859C224.801 168.578 241.774 152.685 261.868 152.734V152.734ZM260.806 171.078C250.69 171.542 242.549 179.508 241.993 189.859C241.4 200.901 249.702 210.11 260.743 210.703C271.785 211.296 280.994 203.026 281.587 191.984C281.587 191.964 281.587 191.943 281.587 191.922C282.156 180.896 273.893 171.701 262.868 171.109C262.178 171.072 261.48 171.047 260.806 171.078V171.078ZM167.899 277.141C169.174 277.145 170.456 277.165 171.743 277.234C212.881 279.443 244.741 314.842 242.618 355.984L217.149 354.672C218.563 327.274 197.794 304.205 170.399 302.734C142.963 301.261 119.81 322.048 118.337 349.484C116.864 376.92 137.651 400.042 165.087 401.516C192.523 402.989 215.676 382.202 217.149 354.766L242.618 356.141C240.406 397.338 204.909 429.196 163.712 426.984C122.515 424.772 90.6562 389.307 92.8682 348.109C94.9419 309.487 126.267 279.063 164.118 277.234C165.38 277.173 166.625 277.137 167.899 277.141V277.141Z" fill="white"/>
<path d="M420.89 178.173H358.665V362.021H420.89V178.173Z" fill="white"/>
<path d="M441.397 209.992H465.684V247.462L522.007 247.492V349.292L465.934 349.249L465.434 400.622L357.958 400.557L358.098 382.973L441.397 382.88V209.992Z" fill="white"/>
</g>
<defs>
<clipPath id="clip0">
<path d="M0 0H580V580H0V0Z" fill="white"/>
</clipPath>
</defs>
</svg>
